X:1
T:Title
%%score ( 1 2 ) { 3 | 4 }
L:1/8
Q:1/4=88
M:3/4
K:Eb
V:1 treble nm="Grand Piano, Soprano"
V:2 treble 
V:3 bass nm="Choir Pad, Stavanger, C W James 1909"
V:4 bass 
V:1
 [B,E][B,D] [B,E] [EA]3 | [EA][EA] E [EG]3 | [EG][DG] [DF] [DF]3 | [FB][F=A] [EA] [D_A]3 | %4
w: By~C.~W.~James,~1909 * * *||||
 [DA][EG] [FB] [Ee]3 | [EG][_DG] [CF] [Ec]3 | [_Ge][Gd] [Gc] [=GB]3 | E[EG] [DF] E3 | z2 z A3- | %9
w: |||||
 A2 z2 z G- | G4 z2 | [EG][DG]- [DG]4 | [DF][Ge] [Fd] [Ec]3- | [Ec]2 [Ad][Ac] [AB][Ge]- | %14
w: |||||
 [Ge]4 [EG][_DG] | [CF][Ec]- [Ec]4 | [_Ge][Gd] [Gc] [=GB]3- | [GB]2 E[EG] [DF]E- | ED C [B,E]3- | %19
w: |||||
 [B,E]4 z2 |] %20
w: |
V:2
 x6 | x6 | x6 | x6 | x6 | x6 | x6 | x6 | B,D .F2 DD | EF DC .B,2 | ED CB, [EG][EG] | x6 | x6 | x6 | %14
 x6 | x6 | x6 | x6 | x6 | x6 |] %20
V:3
 G,A, G, C3 | CC =B, _B,3 | B,B, A, A,3 | A,F, F, F,3 | F,E, A, G,3 | B,B, A, A,3 | CD E E3 | %7
 =A,[K:bass]B, _A, G,3 | z2 z2 F,F, | G,A, z2 z2 | B,B, B,B, B,B, | B,=B,- B,4 | %12
 =B,B, B,[K:treble] C3- | C2 CB, B,[K:bass]B,- | B,4 B,B, | A,A,- A,4 | CD E E3- | %17
 E2[K:bass] =A,B, _A,G, | CB, A, G,3- | G,4 z2 |] %20
V:4
 E,E, E, E,3 | E,E, E, E,3 | E,B,, B,, B,,3 | .D,2 z B,,3 | B,,C, D, E,3 | E,A,, A,, A,,3 | %6
 =A,,A,, A,, B,,3 | =B,,_B,, B,, E,3 | z2 z2 B,,B,, | B,,B,, z2 z2 | E,E, E,E, E,E, | %11
 E,[G,,G,]- [G,,G,]4 | G,G, G, C,3- | C,2 B,,C, D,E,- | E,4 E,A,, | A,,A,,- A,,4 | %16
 =A,,A,, A,, B,,3- | B,,2 =B,,_B,, B,,E,- | E,6- | E,4 z2 |] %20

